X:7016
T:Goodby Dolly Gray
R:March
C:Paul Barnes 1898
O:England
Z:Paul Hardy's Session Tunebook 2015 (see www.paulhardy.net). Creative Commons cc by-nc-sa licenced.
M:4/4
L:1/8
Q:1/4=120
K:D
"D"d2 d2 "A"cedB|"D"d4 A4|"Bm"B2 c2 dBAF|"D"A6 Bc|d2 d2 "A"cedB|"D"d4 A2 AB|"A"c2 c2 "Bm"d2 B2|"A"e8|
"D"d2 d2 "A"cedB|"D"d4 A2 dc|"Bm"B2 c2 d2 e2|"F#"f6 zf|"A"e2 d2 cedB|"D"d4 A4|"Bm"B2 d2 "A7"d2 c2|"D"d6 z2|]

